X: 7521
T: Cobbler's, The
R: polka
M: 2/4
K: Bminor
|:dB fB|de f>e|dB fB|c/B/A/c/ ef/e/|
dB fB|de f>e|d>e f/e/d|1 B2 B>c:|2 B2 B2||
|:fa/f/ ba|fe f>e|dB fB|c/B/A/c/ ed/e/|
fa/f/ ba|fe f>e|d>e f/e/d|1 B2 B2:|2 B2 B>c||

